X:86
T:??
S:irtrad-l,Frederic SAUR, 11/97
R:reel
Z:Fred SAUR le 11/11/97
M:C
L:1/8
Q:120
K:F
|:B2GA Bcdc|BAGB ADGA|~B2GA Bcde|fdcB ADGA:|
~B2fB gBfB|~B2dB cAFA|~B2fB gBfB|cAFA BGGA|
~B2fB gBfB|~B2dB cAFA|GBdA gage|fdcB ADGA|
~B2fB gBfB|~B2dB cAFA|~B2aB gBfB|cAFA BGGA|
~B2fB gBfB|~B2dB cAFA|GBdA gage|fdcB ADGA|


